images/ico_step3.svg

<svg width="74" height="77" viewBox="0 0 74 77" fill="none" xmlns="http://www.w3.org/2000/svg">
<path fill-rule="evenodd" clip-rule="evenodd" d="M74 17.2971C74 25.9002 67.6896 33.0364 59.4242 34.3704V63.6087C59.4242 71.0045 53.3999 77 45.9697 77H13.4545C6.02433 77 0 71.0045 0 63.6087V31.2464C0 23.8505 6.02433 17.8551 13.4545 17.8551H39.2513C39.2454 17.6698 39.2424 17.4838 39.2424 17.2971C39.2424 7.7443 47.023 0 56.6212 0C66.2194 0 74 7.7443 74 17.2971ZM56.0606 34.5854C48.0611 34.3331 41.4259 28.7001 39.6873 21.2029H13.4545C7.88133 21.2029 3.36364 25.6996 3.36364 31.2464V63.6087C3.36364 69.1554 7.88133 73.6522 13.4545 73.6522H45.9697C51.5429 73.6522 56.0606 69.1554 56.0606 63.6087V34.5854ZM56.6212 31.2464C64.3624 31.2464 70.6364 25.0011 70.6364 17.2971C70.6364 9.59312 64.3624 3.34783 56.6212 3.34783C48.88 3.34783 42.6061 9.59312 42.6061 17.2971C42.6061 25.0011 48.88 31.2464 56.6212 31.2464ZM55.5548 9.99991V21.2024L49.8326 16.7879L47.9992 18.9062L56.0548 24.7151C56.3326 24.905 56.6659 24.9999 56.9992 24.9999C57.3326 24.9999 57.6659 24.905 57.9437 24.7151L65.9992 18.9062L64.1659 16.7879L58.3326 21.2499V9.99991H55.5548ZM20.326 36.7941C20.326 36.7941 20.4146 36.4342 20.6986 36.2257C20.9826 36.0173 21.3792 36.021 21.3792 36.021H46.4761C46.4761 36.021 47.3703 35.9202 47.7275 36.3014C48.0847 36.6826 47.9728 37.2075 47.9728 37.2075L43.0602 55.7491C43.0602 55.7491 42.9741 56.1879 42.5778 56.4879C42.1814 56.7878 41.6628 56.8065 41.6628 56.8065H30.1927L21.7158 62.8551C21.7158 62.8551 21.3085 63.055 21.0555 62.979C20.8024 62.9029 20.8187 62.5855 20.8187 62.5855L22.3255 56.8065H16.1577C16.1577 56.8065 15.6178 56.6978 15.4687 56.4879C15.3196 56.278 15.4065 55.7491 15.4065 55.7491L16.9309 49.8621H12.9995L13.4706 48.1207C13.4706 48.1207 13.706 47.5982 14.0631 47.3378C14.4202 47.0773 15.1853 47.0716 15.1853 47.0716H17.6572L18.1276 45.2672H14.1861L14.6643 43.4792C14.6643 43.4792 14.8158 43.026 15.1853 42.7826C15.5548 42.5391 16.1577 42.4951 16.1577 42.4951H18.8415L20.326 36.7941ZM21.822 42.4747L22.8182 38.9999L42.9995 39.0485L44.3995 39.0519L44.0508 40.331L40.3584 53.8765H29.9074C29.9074 53.8765 29.5142 53.8538 29.1339 53.9653C28.7536 54.0767 28.4939 54.2907 28.4939 54.2907L24.6881 56.9999L25.5698 53.9653L18.9995 53.8765L20.0053 49.8725H34.6806C34.6806 49.8725 35.3655 49.811 35.776 49.5419C36.1865 49.2728 36.424 48.7295 36.424 48.7295L36.8573 47.0537H20.6836L21.1724 45.1247H36.0492C36.2126 45.1247 36.7543 45.0465 37.1543 44.7962C37.5543 44.546 37.7254 44.0758 37.7254 44.0758L38.2155 42.4747H21.822Z" fill="url(#paint0_linear)"/>
<defs>
<linearGradient id="paint0_linear" x1="53.2242" y1="5.3503" x2="35.7245" y2="82.0593" gradientUnits="userSpaceOnUse">
<stop stop-color="white" stop-opacity="0.599468"/>
<stop offset="1" stop-color="white"/>
</linearGradient>
</defs>
</svg>

<svg width="74" height="77" fill="none" xmlns="http://www.w3.org/2000/svg"><path fill-rule="evenodd" clip-rule="evenodd" d="M74 17.297c0 8.603-6.31 15.74-14.576 17.073v29.24C59.424 71.004 53.4 77 45.97 77H13.454C6.024 77 0 71.004 0 63.609V31.246c0-7.395 6.024-13.39 13.454-13.39h25.797a17.533 17.533 0 01-.009-.559C39.242 7.744 47.023 0 56.622 0 66.218 0 74 7.744 74 17.297zM56.06 34.585c-7.999-.252-14.634-5.885-16.373-13.382H13.455c-5.574 0-10.091 4.497-10.091 10.043V63.61c0 5.546 4.517 10.043 10.09 10.043H45.97c5.573 0 10.09-4.497 10.09-10.043V34.585zm.561-3.339c7.741 0 14.015-6.245 14.015-13.949s-6.274-13.95-14.015-13.95c-7.741 0-14.015 6.246-14.015 13.95 0 7.704 6.274 13.95 14.015 13.95zM55.555 10v11.202l-5.722-4.414-1.834 2.118 8.056 5.81c.278.189.61.284.944.284.334 0 .667-.095.945-.285l8.055-5.809-1.833-2.118-5.833 4.462V10h-2.778zM20.326 36.794s.089-.36.373-.568c.284-.209.68-.205.68-.205h25.097s.894-.1 1.252.28c.357.382.245.907.245.907L43.06 55.749s-.086.439-.482.739c-.397.3-.915.319-.915.319h-11.47l-8.477 6.048s-.408.2-.66.124c-.254-.076-.237-.393-.237-.393l1.507-5.78h-6.168s-.54-.108-.69-.318c-.148-.21-.062-.739-.062-.739l1.525-5.887h-3.932l.472-1.741s.235-.523.592-.783 1.122-.266 1.122-.266h2.472l.47-1.805h-3.94l.477-1.788s.152-.453.521-.696c.37-.244.973-.288.973-.288h2.683l1.485-5.7zm1.496 5.68L22.818 39 43 39.048l1.4.004-.348 1.279-3.693 13.545h-10.45s-.394-.022-.774.09c-.38.11-.64.325-.64.325L24.688 57l.882-3.035-6.57-.089 1.005-4.003h14.676s.684-.062 1.095-.331c.41-.27.648-.813.648-.813l.433-1.675H20.684l.488-1.93H36.05c.164 0 .705-.078 1.105-.328s.571-.72.571-.72l.49-1.601H21.822z" fill="url(#paint0_linear)"/><defs><linearGradient id="paint0_linear" x1="53.224" y1="5.35" x2="35.724" y2="82.059" gradientUnits="userSpaceOnUse"><stop stop-color="#fff" stop-opacity=".599"/><stop offset="1" stop-color="#fff"/></linearGradient></defs></svg>
